Gurmukhi/0A09.svg

<svg enable-background="new 0 0 336 592" viewBox="0 0 336 592" xmlns="http://www.w3.org/2000/svg"><path d="m169.126587 118.816528c23.277298-5.272407 44.143707-1.780296 61.666061 14.724961 12.847702 12.101989 19.525254 27.49887 22.517533 44.68016.716568 4.114426 1.052887 8.237259 1.153686 12.404099.084885 3.509079 1.542816 5.712509 5.546997 5.221161 1.312714-.161057 2.672852-.134049 3.992523-.003296 4.07367.403656 9.322266-1.93898 11.988404 1.234771 3.661102 4.358185 5.081726 10.399247 6.565185 16.013871.749512 2.836837-1.142395 4.148422-4.080566 4.106491-6.161743-.087921-12.328369.087814-18.487702-.062058-3.298126-.080261-4.620773.992752-4.907699 4.505905-1.242462 15.212998-4.232193 29.910904-12.843628 43.022355-5.352768 8.149932-12.357117 14.300842-20.581207 19.26654-1.119721.676117-2.216095 1.390808-3.345276 2.101502.544082 2.336029 2.600067 2.59497 4.068878 3.470886 25.378754 15.134857 34.178268 36.878082 28.660995 64.819427-3.748535 18.983917-22.29248 34.80008-43.131729 37.962586-35.33287 5.36203-61.622192-8.938782-80.758552-37.806733-14.717629-22.202148-21.855698-47.217132-25.559532-73.375274-2.128357-15.031372-3.287445-30.10112-2.689232-45.273316.234398-5.944854.846687-11.874786 1.34919-18.651992-5.860428 0-11.317238-.291779-16.726052.092285-4.330505.307495-6.444923-1.502457-7.605598-5.387314-.903221-3.023102-2.192498-5.928833-3.243172-8.910355-1.928551-5.472656-.855698-7.115295 4.825951-7.175964 6.995186-.074707 14.005264-.285797 20.98275.072037 4.377975.224518 6.106994-1.487839 7.15496-5.56279 4.852181-18.867432 13.500756-35.725769 27.18042-49.826431 10.067795-10.37761 21.751297-18.013054 36.306412-21.663514m58.783508 228.543732c5.879517-15.917572 1.51004-31.513458-11.852478-41.891296-9.811783-7.620179-21.462997-9.698212-33.374435-9.984101-16.810944-.403381-33.640473.022827-50.457276-.227234-4.666259-.069366-5.48085 1.925019-4.712104 5.750367 3.319816 16.519744 9.194313 32.002563 19.377159 45.552642 12.670181 16.859894 28.953384 26.26059 50.761047 23.104126 13.672577-1.978973 24.604767-7.993469 30.258087-22.304504m-44.410095-130.18486c-17.489929.0065-34.980484.093063-52.469345-.040711-4.018662-.030746-5.420204 1.412155-5.837792 5.443116-1.511268 14.588134-2.489944 29.126876-1.014907 43.805191.413993 4.11972 1.625442 5.400482 5.649498 5.367309 18.654663-.153839 37.313537.099335 55.966217-.147888 8.934463-.118408 17.41777-2.533539 25.092056-7.322845 14.952194-9.331254 23.024902-23.127854 25.936508-40.211152 1.167893-6.852401 1.082764-6.888488-5.848953-6.893829-15.491089-.011902-30.982193-.000107-47.473282.000809m44.85585-57.006333c-11.301712-16.109253-26.912765-21.996673-46.04216-19.152633-21.089264 3.135406-34.119461 16.706894-43.594177 34.50177-3.301254 6.200195-6.644608 12.508407-7.517273 19.640609.684052.269272.988159.4935 1.292633.493973 33.789749.052506 67.57959.069351 101.369247.156647 3.110215.008041 3.998871-1.357452 3.907471-4.275177-.34613-11.050278-3.441025-21.257706-9.415741-31.365189z"/><path d="m154.126541 414.837952c30.309494 14.237976 58.47992 9.778747 85.933731-8.759735 3.380066 5.739837 6.201706 11.471801 8.534088 17.424102.764572 1.951233-1.335464 2.798371-2.595184 3.786225-10.987915 8.616913-23.572327 13.714294-37.230453 15.853729-25.772797 4.037048-48.741044-2.730286-69.003144-18.993012-1.553589-1.246948-2.892715-2.761596-4.450027-4.003204-2.471131-1.970154-2.455857-4.04892-.677353-6.452209.887482-1.19928 1.6866-2.491486 2.337295-3.833008 1.637864-3.376618 3.511765-3.694428 6.582413-1.365418 3.15686 2.394471 6.80098 4.146485 10.568634 6.34253z"/></svg>

<svg version="1.1" id="Layer_1" xmlns="http://www.w3.org/2000/svg" xmlns:xlink="http://www.w3.org/1999/xlink" x="0px" y="0px"
	 width="100%" viewBox="0 0 336 592" enable-background="new 0 0 336 592" xml:space="preserve">
<path fill="#000000" opacity="1.000000" stroke="none" 
	d="
M169.126587,118.816528 
	C192.403885,113.544121 213.270294,117.036232 230.792648,133.541489 
	C243.640350,145.643478 250.317902,161.040359 253.310181,178.221649 
	C254.026749,182.336075 254.363068,186.458908 254.463867,190.625748 
	C254.548752,194.134827 256.006683,196.338257 260.010864,195.846909 
	C261.323578,195.685852 262.683716,195.712860 264.003387,195.843613 
	C268.077057,196.247269 273.325653,193.904633 275.991791,197.078384 
	C279.652893,201.436569 281.073517,207.477631 282.556976,213.092255 
	C283.306488,215.929092 281.414581,217.240677 278.476410,217.198746 
	C272.314667,217.110825 266.148041,217.286560 259.988708,217.136688 
	C256.690582,217.056427 255.367935,218.129440 255.081009,221.642593 
	C253.838547,236.855591 250.848816,251.553497 242.237381,264.664948 
	C236.884613,272.814880 229.880264,278.965790 221.656174,283.931488 
	C220.536453,284.607605 219.440079,285.322296 218.310898,286.032990 
	C218.854980,288.369019 220.910965,288.627960 222.379776,289.503876 
	C247.758530,304.638733 256.558044,326.381958 251.040771,354.323303 
	C247.292236,373.307220 228.748291,389.123383 207.909042,392.285889 
	C172.576172,397.647919 146.286850,383.347107 127.150490,354.479156 
	C112.432861,332.277008 105.294792,307.262024 101.590958,281.103882 
	C99.462601,266.072510 98.303513,251.002762 98.901726,235.830566 
	C99.136124,229.885712 99.748413,223.955780 100.250916,217.178574 
	C94.390488,217.178574 88.933678,216.886795 83.524864,217.270859 
	C79.194359,217.578354 77.079941,215.768402 75.919266,211.883545 
	C75.016045,208.860443 73.726768,205.954712 72.676094,202.973190 
	C70.747543,197.500534 71.820396,195.857895 77.502045,195.797226 
	C84.497231,195.722519 91.507309,195.511429 98.484795,195.869263 
	C102.862770,196.093781 104.591789,194.381424 105.639755,190.306473 
	C110.491936,171.439041 119.140511,154.580704 132.820175,140.480042 
	C142.887970,130.102432 154.571472,122.466988 169.126587,118.816528 
M227.910095,347.360260 
	C233.789612,331.442688 229.420135,315.846802 216.057617,305.468964 
	C206.245834,297.848785 194.594620,295.770752 182.683182,295.484863 
	C165.872238,295.081482 149.042709,295.507690 132.225906,295.257629 
	C127.559647,295.188263 126.745056,297.182648 127.513802,301.007996 
	C130.833618,317.527740 136.708115,333.010559 146.890961,346.560638 
	C159.561142,363.420532 175.844345,372.821228 197.652008,369.664764 
	C211.324585,367.685791 222.256775,361.671295 227.910095,347.360260 
M183.500000,217.175400 
	C166.010071,217.181900 148.519516,217.268463 131.030655,217.134689 
	C127.011993,217.103943 125.610451,218.546844 125.192863,222.577805 
	C123.681595,237.165939 122.702919,251.704681 124.177956,266.382996 
	C124.591949,270.502716 125.803398,271.783478 129.827454,271.750305 
	C148.482117,271.596466 167.140991,271.849640 185.793671,271.602417 
	C194.728134,271.484009 203.211441,269.068878 210.885727,264.279572 
	C225.837921,254.948318 233.910629,241.151718 236.822235,224.068420 
	C237.990128,217.216019 237.904999,217.179932 230.973282,217.174591 
	C215.482193,217.162689 199.991089,217.174484 183.500000,217.175400 
M228.355850,160.169067 
	C217.054138,144.059814 201.443085,138.172394 182.313690,141.016434 
	C161.224426,144.151840 148.194229,157.723328 138.719513,175.518204 
	C135.418259,181.718399 132.074905,188.026611 131.202240,195.158813 
	C131.886292,195.428085 132.190399,195.652313 132.494873,195.652786 
	C166.284622,195.705292 200.074463,195.722137 233.864120,195.809433 
	C236.974335,195.817474 237.862991,194.451981 237.771591,191.534256 
	C237.425461,180.483978 234.330566,170.276550 228.355850,160.169067 
z"/>
<path fill="#000000" opacity="1.000000" stroke="none" 
	d="
M154.126541,414.837952 
	C184.436035,429.075928 212.606461,424.616699 240.060272,406.078217 
	C243.440338,411.818054 246.261978,417.550018 248.594360,423.502319 
	C249.358932,425.453552 247.258896,426.300690 245.999176,427.288544 
	C235.011261,435.905457 222.426849,441.002838 208.768723,443.142273 
	C182.995926,447.179321 160.027679,440.411987 139.765579,424.149261 
	C138.211990,422.902313 136.872864,421.387665 135.315552,420.146057 
	C132.844421,418.175903 132.859695,416.097137 134.638199,413.693848 
	C135.525681,412.494568 136.324799,411.202362 136.975494,409.860840 
	C138.613358,406.484222 140.487259,406.166412 143.557907,408.495422 
	C146.714767,410.889893 150.358887,412.641907 154.126541,414.837952 
z"/>
</svg>
